svg/information_off.svg

<svg xmlns="http://www.w3.org/2000/svg" viewBox="0 0 24 24"><path d="M22.1 21.5 2.4 1.7 1.1 3l3 3C2.8 7.6 2 9.7 2 12c0 5.5 4.5 10 10 10 2.3 0 4.4-.8 6-2.1l2.8 2.8zM13 17h-2v-4.1l2 2zm-2-9.2L6.7 3.5C8.3 2.6 10.1 2 12 2c5.5 0 10 4.5 10 10 0 1.9-.6 3.7-1.5 5.3L12.2 9h.8V7h-2z"/></svg>

<svg xmlns="http://www.w3.org/2000/svg" id="mdi-information-off" viewBox="0 0 24 24"><path d="M22.1 21.5L2.4 1.7L1.1 3L4.1 6C2.8 7.6 2 9.7 2 12C2 17.5 6.5 22 12 22C14.3 22 16.4 21.2 18 19.9L20.8 22.7L22.1 21.5M13 17H11V12.9L13 14.9V17M11 7.8L6.7 3.5C8.3 2.6 10.1 2 12 2C17.5 2 22 6.5 22 12C22 13.9 21.4 15.7 20.5 17.3L12.2 9H13V7H11V7.8Z" /></svg>
